core/img/favicon-mask.svg

<svg width="16" height="16" version="1.1" viewBox="0 0 16 16" xmlns="http://www.w3.org/2000/svg"><path d="m2.5 0c-1.385 0-2.5 1.115-2.5 2.5v11c0 1.385 1.115 2.5 2.5 2.5h11c1.385 0 2.5-1.115 2.5-2.5v-11c0-1.385-1.115-2.5-2.5-2.5h-11zm5.5 4.58c1.55 0 2.87 1.05 3.283 2.473 0.359-0.748 1.117-1.273 1.997-1.273 1.22 0 2.22 1 2.22 2.22s-1 2.22-2.22 2.22c-0.88 0-1.64-0.52-1.997-1.27-0.413 1.42-1.733 2.47-3.283 2.47s-2.87-1.05-3.28-2.47c-0.36 0.75-1.12 1.27-2 1.27-1.22 0-2.22-1-2.22-2.22 0-1.218 1-2.22 2.22-2.22 0.88 0 1.64 0.525 2 1.273 0.41-1.423 1.73-2.473 3.28-2.473zm0 1.32c-1.168 0-2.1 0.932-2.1 2.1 0 1.17 0.93 2.1 2.1 2.1s2.1-0.93 2.1-2.1c0-1.168-0.93-2.1-2.1-2.1zm-5.28 1.2c-0.504 0-0.9 0.395-0.9 0.9s0.396 0.9 0.9 0.9c0.506 0 0.9-0.395 0.9-0.9s-0.394-0.9-0.9-0.9zm10.56 0c-0.506 0-0.9 0.4-0.9 0.9 0 0.505 0.395 0.9 0.9 0.9s0.9-0.395 0.9-0.9c0-0.5-0.396-0.9-0.9-0.9z"/></svg>

<svg xmlns="http://www.w3.org/2000/svg" width="16" height="16"><path d="M2.5 0A2.495 2.495 0 0 0 0 2.5v11C0 14.885 1.115 16 2.5 16h11c1.385 0 2.5-1.115 2.5-2.5v-11C16 1.115 14.885 0 13.5 0h-11zM8 4.58c1.55 0 2.87 1.05 3.283 2.473A2.223 2.223 0 0 1 13.28 5.78c1.22 0 2.22 1 2.22 2.22s-1 2.22-2.22 2.22c-.88 0-1.64-.52-1.997-1.27C10.87 10.37 9.55 11.42 8 11.42s-2.87-1.05-3.28-2.47c-.36.75-1.12 1.27-2 1.27C1.5 10.22.5 9.22.5 8c0-1.218 1-2.22 2.22-2.22.88 0 1.64.525 2 1.273A3.428 3.428 0 0 1 8 4.58zM8 5.9A2.09 2.09 0 0 0 5.9 8c0 1.17.93 2.1 2.1 2.1s2.1-.93 2.1-2.1c0-1.168-.93-2.1-2.1-2.1zM2.72 7.1c-.504 0-.9.395-.9.9s.396.9.9.9c.506 0 .9-.395.9-.9s-.394-.9-.9-.9zm10.56 0c-.506 0-.9.4-.9.9 0 .505.395.9.9.9s.9-.395.9-.9c0-.5-.396-.9-.9-.9z"/></svg>
